build/img/mir-logo.svg

<svg width="50" height="15" viewBox="0 0 50 15" fill="none" xmlns="http://www.w3.org/2000/svg">
<g clip-path="url(#clip0)">
<path fill-rule="evenodd" clip-rule="evenodd" d="M13.4734 -3.5429e-06V0.00623476C13.4672 0.00623476 11.5204 -3.57672e-06 11.0012 1.87773C10.5253 3.5995 9.18418 8.35308 9.1471 8.48409H8.77627C8.77627 8.48409 7.4042 3.62445 6.92213 1.87149C6.40297 -0.0062419 4.44994 -3.5429e-06 4.44994 -3.5429e-06H0V14.2857H4.44994V5.80162H4.63535H4.82077L7.41656 14.2857H10.5068L13.1026 5.80786H13.4734V14.2857H17.9234V-3.5429e-06H13.4734Z" fill="#4DB45E"/>
<path fill-rule="evenodd" clip-rule="evenodd" d="M29.7281 0C29.7281 0 28.424 0.118528 27.8121 1.49719L24.6601 8.48409H24.2892V0H19.8393V14.2857H24.042C24.042 14.2857 25.4079 14.1609 26.0198 12.7885L29.11 5.80162H29.4808V14.2857H33.9308V0H29.7281Z" fill="#4DB45E"/>
<path fill-rule="evenodd" clip-rule="evenodd" d="M35.9085 6.48783V14.2857H40.3585V9.73175H45.1792C47.2806 9.73175 49.0606 8.37804 49.7219 6.48783H35.9085Z" fill="#4DB45E"/>
<path fill-rule="evenodd" clip-rule="evenodd" d="M45.1792 0H35.2843C35.7787 2.7199 37.7998 4.90331 40.4141 5.61447C41.0074 5.77667 41.6316 5.86401 42.2744 5.86401H49.9011C49.9691 5.53961 50 5.20898 50 4.86588C50 2.17717 47.843 0 45.1792 0Z" fill="url(#paint0_linear)"/>
</g>
<defs>
<linearGradient id="paint0_linear" x1="35.2855" y1="2.932" x2="50" y2="2.932" gradientUnits="userSpaceOnUse">
<stop offset="0.3" stop-color="#00B4E6"/>
<stop offset="1" stop-color="#088CCB"/>
</linearGradient>
<clipPath id="clip0">
<rect width="50" height="14.2857" fill="white"/>
</clipPath>
</defs>
</svg>

<?xml version="1.0" encoding="UTF-8"?>
<svg fill="none" viewBox="0 0 50 15" xmlns="http://www.w3.org/2000/svg">
<g clip-path="url(#b)" clip-rule="evenodd" fill-rule="evenodd">
<path d="m13.473-3.5429e-6v0.0062383c-0.0062 0-1.953-0.0062383-2.4722 1.8715-0.4759 1.7218-1.817 6.4754-1.8541 6.6064h-0.37083s-1.3721-4.8596-1.8541-6.6126c-0.51916-1.8777-2.4722-1.8715-2.4722-1.8715h-4.4499v14.286h4.4499v-8.4841h0.37083l2.5958 8.4841h3.0902l2.5958-8.4778h0.3708v8.4778h4.45v-14.286h-4.45z" fill="#4DB45E"/>
<path d="m29.728 0s-1.3041 0.11853-1.916 1.4972l-3.152 6.9869h-0.3709v-8.4841h-4.4499v14.286h4.2027s1.3659-0.1248 1.9778-1.4972l3.0902-6.9869h0.3708v8.4841h4.45v-14.286h-4.2027z" fill="#4DB45E"/>
<path d="m35.908 6.4878v7.7979h4.45v-4.554h4.8207c2.1014 0 3.8814-1.3537 4.5427-3.2439h-13.813z" fill="#4DB45E"/>
<path d="m45.179 0h-9.8949c0.4944 2.7199 2.5155 4.9033 5.1298 5.6145 0.5933 0.1622 1.2175 0.24954 1.8603 0.24954h7.6267c0.068-0.3244 0.0989-0.65503 0.0989-0.99813 0-2.6887-2.157-4.8659-4.8208-4.8659z" fill="url(#a)"/>
</g>
<defs>
<linearGradient id="a" x1="35.286" x2="50" y1="2.932" y2="2.932" gradientUnits="userSpaceOnUse">
<stop stop-color="#00B4E6" offset=".3"/>
<stop stop-color="#088CCB" offset="1"/>
</linearGradient>
<clipPath id="b">
<rect width="50" height="14.286" fill="#fff"/>
</clipPath>
</defs>
</svg>
